X:86
C:Page 43
T:Morgiana in Scotland. MBe.86
S:Matthew Betham MS, Towcett Cumbria, 1815
O:England;Cumbria;Towcett
Z:VMP – Hugh Taylor, 2012
M:6/8
L:1/8
Q:3/8=100
R:.Jig
K:D
A|AFA f2 e|dcB A2 B|AFA dcd|fed e2 A|
AFA f2 e|dcB A2 B|AFA dcd|edc d3:|
|:c/d/|efe dcB|ABA g2 e|f2 A/A/ e2 A/A/|f2 A/A/ e2 A/A/|
efe dcB|ABA g2 e|f2 A/A/ e2 A/A/|fed BAG|
FDE F2 A|FDE F2 A|G2 B F2 A|FFF F2 A|
FDE F2 A|FDE F2 A|B2 d c2 e|d3 d3:|

